X: 23453
T: Let Nature Be Your Teacher
R: barndance
M: 4/4
K: Gmajor
|:(3DEF|G2 D3/2[B,/B/] D>EG>A|(3Bcd e>f g>ed>B|
e>Gd>B e>dd>B|1 A>BA>G E>D:|2 A>GE>F G2-||
|:G>B|(3ded B>d b>g (3ggg|a>ba>g e>dd>g|
[1 (3ddd B>d b>g (3ggg|a>ge>f g2:|2 g>de>g d>BB>A|A>GE>F G2||

